dist/img/logo-zoo.svg

<svg width="108" height="84" viewBox="0 0 108 84" fill="none" xmlns="http://www.w3.org/2000/svg">
<path fill-rule="evenodd" clip-rule="evenodd" d="M29.6128 58.3841V49.5161H45.2358C45.5616 49.5161 45.881 49.5382 46.2007 49.5604C46.238 49.563 46.2752 49.5655 46.3125 49.5681L44.0545 53.9501H34.0765V58.3841C34.0765 64.4964 39.0826 69.4692 45.2358 69.4692H46.3517H56.3951V65.0352C56.3951 60.1888 53.2282 56.1049 48.8582 54.604L46.3909 49.5724C54.4658 50.1643 60.8588 56.8677 60.8588 65.0352V69.4692C60.8588 71.9146 58.8568 73.9032 56.3951 73.9032H45.2358C36.623 73.9032 29.6128 66.9396 29.6128 58.3841ZM84.254 49.5724C84.2607 49.5613 84.2932 49.5161 84.2932 49.5161L84.3325 49.5681C84.3697 49.5655 84.407 49.563 84.4442 49.5604C84.7639 49.5382 85.0833 49.5161 85.4092 49.5161H101.032V58.3841C101.032 66.9396 94.0219 73.9032 85.4092 73.9032H74.2499C71.7882 73.9032 69.7862 71.9146 69.7862 69.4692V65.0352C69.7862 56.8677 76.1792 50.1643 84.254 49.5724ZM96.5684 53.9501H86.5905C87.1752 55.5353 87.641 57.4419 87.641 59.4927C87.641 65.0019 84.2932 69.4692 84.2932 69.4692C84.2932 69.4692 80.9455 65.0019 80.9455 59.4927C80.9455 57.7057 81.3114 56.0539 81.7868 54.604C77.4168 56.1049 74.2499 60.1888 74.2499 65.0352V69.4692H84.2932H85.4092C91.5624 69.4692 96.5684 64.4964 96.5684 58.3841V53.9501Z" fill="#C5E1E6"/>
<path d="M46.3909 49.5724C46.3842 49.5613 46.3517 49.5161 46.3517 49.5161L46.3125 49.5681L44.0545 53.9501C43.4697 55.5353 43.0039 57.4419 43.0039 59.4927C43.0039 65.0019 46.3517 69.4692 46.3517 69.4692C46.3517 69.4692 49.6995 65.0019 49.6995 59.4927C49.6995 57.7057 49.3336 56.0539 48.8582 54.604L46.3909 49.5724Z" fill="#C5E1E6"/>
<path d="M10.3123 32.3484C7.59484 32.3484 5.4929 31.6516 4.00645 30.2581C2.52 28.8413 1.71871 26.9135 1.60258 24.4748L1.56774 22.9419L1.60258 21.409C1.71871 18.9935 2.53161 17.0774 4.04129 15.6606C5.55097 14.2439 7.64129 13.5355 10.3123 13.5355C12.9832 13.5355 15.0735 14.2439 16.5832 15.6606C18.0929 17.0774 18.9058 18.9935 19.0219 21.409C19.0452 21.6877 19.0568 22.1987 19.0568 22.9419C19.0568 23.6852 19.0452 24.1961 19.0219 24.4748C18.9058 26.9135 18.1045 28.8413 16.6181 30.2581C15.1316 31.6516 13.0297 32.3484 10.3123 32.3484ZM10.3123 28.8994C11.5432 28.8994 12.4955 28.5161 13.169 27.7497C13.8426 26.96 14.2142 25.8103 14.2839 24.3006C14.3071 24.0684 14.3187 23.6155 14.3187 22.9419C14.3187 22.2684 14.3071 21.8155 14.2839 21.5832C14.2142 20.0735 13.8426 18.9355 13.169 18.169C12.4955 17.3794 11.5432 16.9845 10.3123 16.9845C9.08129 16.9845 8.12903 17.3794 7.45548 18.169C6.78194 18.9355 6.41032 20.0735 6.34065 21.5832L6.30581 22.9419L6.34065 24.3006C6.41032 25.8103 6.78194 26.96 7.45548 27.7497C8.12903 28.5161 9.08129 28.8994 10.3123 28.8994ZM23.7529 32C23.5207 32 23.3232 31.9187 23.1607 31.7561C22.9981 31.5935 22.9168 31.3961 22.9168 31.1639V14.72C22.9168 14.4877 22.9981 14.2903 23.1607 14.1277C23.3232 13.9652 23.5207 13.8839 23.7529 13.8839H26.6097C26.842 13.8839 27.0394 13.9652 27.202 14.1277C27.3645 14.2903 27.4458 14.4877 27.4458 14.72V16.1484C28.8161 14.4065 30.7555 13.5355 33.2639 13.5355C35.4007 13.5355 37.0961 14.2439 38.3503 15.6606C39.6045 17.0542 40.2316 18.9587 40.2316 21.3742V31.1639C40.2316 31.3961 40.1503 31.5935 39.9878 31.7561C39.8484 31.9187 39.651 32 39.3955 32H36.3297C36.0974 32 35.9 31.9187 35.7374 31.7561C35.5749 31.5935 35.4936 31.3961 35.4936 31.1639V21.5832C35.4936 20.2129 35.1568 19.1561 34.4832 18.4129C33.8329 17.6465 32.8807 17.2632 31.6265 17.2632C30.3955 17.2632 29.42 17.6465 28.7 18.4129C28.0032 19.1794 27.6549 20.2361 27.6549 21.5832V31.1639C27.6549 31.3961 27.5736 31.5935 27.411 31.7561C27.2716 31.9187 27.0742 32 26.8187 32H23.7529ZM45.5279 32C45.2957 32 45.0983 31.9187 44.9357 31.7561C44.7731 31.5935 44.6918 31.3961 44.6918 31.1639V8.10064C44.6918 7.84516 44.7731 7.64774 44.9357 7.50839C45.0983 7.3458 45.2957 7.26451 45.5279 7.26451H48.4195C48.675 7.26451 48.8725 7.3458 49.0118 7.50839C49.1744 7.64774 49.2557 7.84516 49.2557 8.10064V31.1639C49.2557 31.3961 49.1744 31.5935 49.0118 31.7561C48.8725 31.9187 48.675 32 48.4195 32H45.5279ZM54.5738 10.8877C54.3415 10.8877 54.1441 10.8065 53.9815 10.6439C53.8189 10.4813 53.7376 10.2839 53.7376 10.0516V7.54322C53.7376 7.31097 53.8189 7.11355 53.9815 6.95097C54.1441 6.78839 54.3415 6.7071 54.5738 6.7071H57.7441C57.9763 6.7071 58.1738 6.78839 58.3363 6.95097C58.5221 7.11355 58.615 7.31097 58.615 7.54322V10.0516C58.615 10.2839 58.5338 10.4813 58.3712 10.6439C58.2086 10.8065 57.9996 10.8877 57.7441 10.8877H54.5738ZM54.7131 32C54.4808 32 54.2834 31.9187 54.1208 31.7561C53.9583 31.5935 53.877 31.3961 53.877 31.1639V14.72C53.877 14.4877 53.9583 14.2903 54.1208 14.1277C54.2834 13.9652 54.4808 13.8839 54.7131 13.8839H57.6047C57.8602 13.8839 58.0576 13.9652 58.197 14.1277C58.3596 14.2671 58.4408 14.4645 58.4408 14.72V31.1639C58.4408 31.3961 58.3596 31.5935 58.197 31.7561C58.0576 31.9187 57.8602 32 57.6047 32H54.7131ZM63.8991 32C63.6668 32 63.4694 31.9187 63.3068 31.7561C63.1443 31.5935 63.063 31.3961 63.063 31.1639V14.72C63.063 14.4877 63.1443 14.2903 63.3068 14.1277C63.4694 13.9652 63.6668 13.8839 63.8991 13.8839H66.7559C66.9881 13.8839 67.1855 13.9652 67.3481 14.1277C67.5107 14.2903 67.592 14.4877 67.592 14.72V16.1484C68.9623 14.4065 70.9017 13.5355 73.4101 13.5355C75.5468 13.5355 77.2423 14.2439 78.4965 15.6606C79.7507 17.0542 80.3778 18.9587 80.3778 21.3742V31.1639C80.3778 31.3961 80.2965 31.5935 80.1339 31.7561C79.9946 31.9187 79.7972 32 79.5417 32H76.4759C76.2436 32 76.0462 31.9187 75.8836 31.7561C75.721 31.5935 75.6397 31.3961 75.6397 31.1639V21.5832C75.6397 20.2129 75.303 19.1561 74.6294 18.4129C73.9791 17.6465 73.0268 17.2632 71.7726 17.2632C70.5417 17.2632 69.5662 17.6465 68.8462 18.4129C68.1494 19.1794 67.801 20.2361 67.801 21.5832V31.1639C67.801 31.3961 67.7197 31.5935 67.5572 31.7561C67.4178 31.9187 67.2204 32 66.9649 32H63.8991ZM92.607 32.3484C90.0289 32.3484 87.9735 31.6052 86.4406 30.1187C84.9309 28.609 84.1296 26.4955 84.0367 23.7781L84.0018 22.9071L84.0367 22.0361C84.1528 19.3884 84.9657 17.3097 86.4754 15.8C88.0083 14.2903 90.0522 13.5355 92.607 13.5355C95.3477 13.5355 97.4612 14.3716 98.9477 16.0439C100.457 17.7161 101.212 19.9458 101.212 22.7329V23.4645C101.212 23.6968 101.131 23.8942 100.968 24.0568C100.806 24.2194 100.597 24.3006 100.341 24.3006H88.7748V24.5794C88.8212 25.8568 89.1696 26.9368 89.8199 27.8194C90.4935 28.6787 91.4109 29.1084 92.5722 29.1084C93.9425 29.1084 95.0457 28.5742 95.8818 27.5058C96.0909 27.2503 96.2535 27.0877 96.3696 27.0181C96.5089 26.9484 96.7064 26.9135 96.9618 26.9135H99.958C100.167 26.9135 100.341 26.9832 100.481 27.1226C100.643 27.2387 100.724 27.3897 100.724 27.5755C100.724 28.1329 100.388 28.7948 99.7141 29.5613C99.0638 30.3045 98.1231 30.9548 96.8922 31.5123C95.6612 32.0697 94.2328 32.3484 92.607 32.3484ZM96.4741 21.3742V21.2697C96.4741 19.8994 96.1257 18.7961 95.4289 17.96C94.7554 17.1239 93.8148 16.7058 92.607 16.7058C91.3993 16.7058 90.4586 17.1239 89.7851 17.96C89.1115 18.7961 88.7748 19.8994 88.7748 21.2697V21.3742H96.4741Z" fill="#0D444D"/>
<path d="M2.19484 73.8064C1.93935 73.8064 1.73032 73.7252 1.56774 73.5626C1.42839 73.4 1.35871 73.191 1.35871 72.9355V70.4968C1.35871 70.1019 1.44 69.8 1.60258 69.591C1.76516 69.3587 1.85806 69.231 1.88129 69.2077L14.0052 53.5303H2.54323C2.31097 53.5303 2.11355 53.449 1.95097 53.2864C1.78839 53.1239 1.7071 52.9264 1.7071 52.6942V50.2903C1.7071 50.0348 1.77677 49.8258 1.91613 49.6632C2.07871 49.5006 2.28774 49.4194 2.54323 49.4194H19.1961C19.4516 49.4194 19.6606 49.5006 19.8232 49.6632C19.9858 49.8258 20.0671 50.0348 20.0671 50.2903V52.6942C20.0671 53.1123 19.9161 53.5187 19.6142 53.9135L7.73419 69.6606H19.5794C19.8348 69.6606 20.0439 69.7419 20.2065 69.9045C20.369 70.0671 20.4503 70.2761 20.4503 70.5316V72.9703C20.4503 73.2258 20.369 73.4348 20.2065 73.5974C20.0439 73.7368 19.8348 73.8064 19.5794 73.8064H2.19484Z" fill="#0D444D"/>
</svg>

<svg width="108" height="84" fill="none" xmlns="http://www.w3.org/2000/svg"><path fill-rule="evenodd" clip-rule="evenodd" d="M29.613 58.384v-8.868h15.623c.326 0 .645.022.965.044l.111.008-2.258 4.382h-9.977v4.434c0 6.112 5.006 11.085 11.159 11.085h11.159v-4.434c0-4.846-3.167-8.93-7.537-10.431l-2.467-5.032c8.075.592 14.468 7.296 14.468 15.463v4.434c0 2.446-2.002 4.434-4.464 4.434h-11.16c-8.612 0-15.622-6.963-15.622-15.519zm54.641-8.812l.04-.056.038.052.112-.008c.32-.022.64-.044.965-.044h15.623v8.868c0 8.556-7.01 15.52-15.623 15.52H74.25c-2.46 0-4.463-1.99-4.463-4.435v-4.434c0-8.167 6.393-14.87 14.468-15.463zm12.314 4.378h-9.977c.584 1.585 1.05 3.492 1.05 5.543 0 5.509-3.348 9.976-3.348 9.976s-3.348-4.467-3.348-9.976c0-1.787.366-3.44.842-4.889-4.37 1.5-7.537 5.585-7.537 10.431v4.434h11.159c6.153 0 11.16-4.973 11.16-11.085V53.95z" fill="#C5E1E6"/><path d="M46.39 49.572a1.821 1.821 0 00-.038-.056l-.04.052-2.258 4.382c-.584 1.585-1.05 3.492-1.05 5.543 0 5.509 3.348 9.976 3.348 9.976s3.348-4.467 3.348-9.976c0-1.787-.366-3.44-.842-4.889l-2.467-5.032z" fill="#C5E1E6"/><path d="M10.312 32.348c-2.717 0-4.82-.696-6.306-2.09-1.486-1.417-2.287-3.345-2.403-5.783l-.035-1.533.035-1.533c.116-2.415.929-4.332 2.438-5.748 1.51-1.417 3.6-2.125 6.271-2.125s4.761.708 6.271 2.125c1.51 1.416 2.323 3.333 2.439 5.748.023.279.035.79.035 1.533 0 .743-.012 1.254-.035 1.533-.116 2.438-.917 4.366-2.404 5.783-1.486 1.394-3.588 2.09-6.306 2.09zm0-3.449c1.231 0 2.184-.383 2.857-1.15.674-.789 1.045-1.939 1.115-3.448.023-.233.035-.685.035-1.36 0-.673-.012-1.125-.035-1.358-.07-1.51-.441-2.647-1.115-3.414-.674-.79-1.626-1.184-2.857-1.184-1.23 0-2.183.394-2.857 1.184-.673.767-1.045 1.904-1.114 3.414l-.035 1.359.035 1.359c.07 1.51.44 2.659 1.114 3.449.674.766 1.626 1.15 2.857 1.15zM23.752 32a.806.806 0 01-.591-.244.806.806 0 01-.244-.592V14.72c0-.232.081-.43.244-.592a.806.806 0 01.592-.244h2.857c.232 0 .43.081.592.244.162.162.244.36.244.592v1.428c1.37-1.742 3.31-2.612 5.818-2.612 2.137 0 3.832.708 5.086 2.125 1.255 1.393 1.882 3.298 1.882 5.713v9.79c0 .232-.082.43-.244.592-.14.163-.337.244-.593.244H36.33a.806.806 0 01-.593-.244.807.807 0 01-.243-.592v-9.58c0-1.371-.337-2.428-1.01-3.171-.651-.767-1.603-1.15-2.858-1.15-1.23 0-2.206.383-2.926 1.15-.697.766-1.045 1.823-1.045 3.17v9.58c0 .233-.081.43-.244.593-.14.163-.337.244-.592.244h-3.066zm21.776 0a.806.806 0 01-.592-.244.806.806 0 01-.244-.592V8.1c0-.256.081-.453.244-.593a.806.806 0 01.592-.243h2.892c.255 0 .453.08.592.243.162.14.244.337.244.593v23.063c0 .232-.082.43-.244.592-.14.163-.337.244-.593.244h-2.891zm9.046-21.112a.806.806 0 01-.593-.244.806.806 0 01-.243-.592V7.543c0-.232.08-.43.243-.592a.806.806 0 01.593-.244h3.17c.232 0 .43.081.592.244a.76.76 0 01.279.592v2.509c0 .232-.081.43-.244.592a.849.849 0 01-.627.244h-3.17zM54.714 32a.806.806 0 01-.593-.244.807.807 0 01-.244-.592V14.72c0-.232.081-.43.244-.592a.807.807 0 01.592-.244h2.892c.255 0 .453.081.592.244.163.14.244.336.244.592v16.444c0 .232-.081.43-.244.592-.14.163-.337.244-.592.244h-2.892zm9.185 0a.806.806 0 01-.592-.244.807.807 0 01-.244-.592V14.72c0-.232.081-.43.244-.592a.807.807 0 01.592-.244h2.857c.232 0 .43.081.592.244.163.162.244.36.244.592v1.428c1.37-1.742 3.31-2.612 5.818-2.612 2.137 0 3.832.708 5.087 2.125 1.254 1.393 1.88 3.298 1.88 5.713v9.79c0 .232-.08.43-.243.592-.14.163-.337.244-.592.244h-3.066a.806.806 0 01-.592-.244.806.806 0 01-.244-.592v-9.58c0-1.371-.337-2.428-1.01-3.171-.65-.767-1.603-1.15-2.857-1.15-1.231 0-2.207.383-2.927 1.15-.697.766-1.045 1.823-1.045 3.17v9.58c0 .233-.081.43-.244.593-.14.163-.337.244-.592.244h-3.066zm28.708.348c-2.578 0-4.633-.743-6.166-2.23-1.51-1.509-2.311-3.622-2.404-6.34l-.035-.87.035-.872c.116-2.648.929-4.726 2.438-6.236 1.533-1.51 3.577-2.264 6.132-2.264 2.74 0 4.854.836 6.34 2.508 1.51 1.672 2.265 3.902 2.265 6.689v.732c0 .232-.081.43-.244.592a.847.847 0 01-.627.244H88.775v.278c.046 1.278.395 2.358 1.045 3.24.674.86 1.59 1.29 2.752 1.29 1.37 0 2.474-.535 3.31-1.603.209-.256.371-.418.488-.488.139-.07.336-.105.592-.105h2.996a.71.71 0 01.523.21.534.534 0 01.243.453c0 .557-.336 1.219-1.01 1.985-.65.744-1.59 1.394-2.822 1.951-1.23.558-2.66.836-4.285.836zm3.867-10.974v-.104c0-1.37-.348-2.474-1.045-3.31-.674-.836-1.614-1.254-2.822-1.254s-2.148.418-2.822 1.254c-.673.836-1.01 1.94-1.01 3.31v.104h7.7zM2.195 73.806a.849.849 0 01-.627-.243c-.14-.163-.21-.372-.21-.627v-2.44c0-.394.082-.696.245-.905a6.18 6.18 0 01.278-.383L14.005 53.53H2.543a.806.806 0 01-.592-.244.806.806 0 01-.244-.592V50.29c0-.255.07-.464.21-.627a.849.849 0 01.626-.244h16.653a.85.85 0 01.627.244.849.849 0 01.244.627v2.404c0 .418-.15.825-.453 1.22L7.734 69.66H19.58c.256 0 .465.08.627.243a.85.85 0 01.244.628v2.438a.85.85 0 01-.244.627c-.162.14-.371.21-.627.21H2.195z" fill="#0D444D"/></svg>
